X:145
T:Bagpipes,The. WM.145
M:2/4
L:1/8
Q:1/2=60
S:Wm.Mittell’s MS, New Romney,Kent,1799
R:.Air
O:England
A:Kent
N:Accompanied throughout by double stopped drone on string below,rythm
N:as per bowing
Z:vmp.Chris Partington
K:D
A|”Maintain continuous drone on string below”\
(B/c/d d)c|~B3A|(B>ABc)|(d/c/d/e/ d)A|\
(B/c/d d)c|~B3A|(B>A)(Bc)|d2d:|!
|:e|(f/g/a a)f|(~f2e2)|(f/g/f/g/) aa|\
(f/e/f/g/ a)a|(B/c/d d)c|~B3A|(B>A)(Bc)|d2d:|

